X: 3041
T: LORD RAMSAY
C: G. Robertson
Q:"Strathspey."
R: Strathspey.
%R:strathspey
B: James Kerr "Merry Melodies" v.3 p.7 #41
Z: 2016 John Chambers <jc:trillian.mit.edu>
M: C
L: 1/16
K: G
ug2 |\
dB3B3A G4 (DG3) | E3A cBAG FA3 A3g |\
dB3B3A G4 D3G | vE3vG (FGA2) BG3 G2 :|
|: D2 |\
(B,CD2) D3G E3GD3G | D3d cBAG FA3 A3C |\
(B,CD2) D3G E3Gc3e | d3Bc3A BG3 G2 :|

%%sep 1 1 500
%%sep 1 1 500

